packages/calcite-ui-icons/icons/link-chart-tools-16.svg

<?xml version="1.0" encoding="UTF-8"?><svg id="icons" xmlns="http://www.w3.org/2000/svg" viewBox="0 0 16 16"><defs><style>.cls-1{fill:none;}</style></defs><rect class="cls-1" width="16" height="16"/><path d="M15.98181,7.23859c-.00598-.00879-.01556-.01758-.02679-.02277-.03278-.01929-.07159-.0141-.10095.00867l-1.86151,1.44586c-.07336.05701-.17102.05963-.24091.0061l-.87292-.64966c-.01721-.01233-.02844-.02368-.03967-.03772-.01123-.01489-.01813-.02979-.02502-.04468l-.41705-1.06439c-.03278-.08331-.00525-.1806.06824-.23761l1.86145-1.44574c.02936-.02283.04401-.06232.03369-.0965-.00171-.01227-.00604-.02283-.01379-.03333-.01471-.01752-.03369-.0307-.05786-.03333-.86255-.12531-1.85114.10785-2.46063.58044-.84265.65417-1.05273,1.89142-.55835,2.9137.03088.06378.01715.14032-.034.18933-.72058.69055-5.82275,4.90875-5.82275,4.90875-.54321.54407-.54321,1.42603.00085,1.96997.54395.54413,1.42596.54413,1.96918,0l4.72919-5.48273c.1839-.16315.40552-.31555.64404-.26038.71826.1662,1.45941.16626,2.04706-.29059.60693-.47089,1.08789-1.38007,1.19574-2.25861.00348-.02448-.00256-.04559-.01721-.06482ZM7,15h-1v-1h1v1ZM6.5,11.00098c.07727,0,.15143-.01154.22559-.02283.42926-.3584.83099-.69434,1.18732-.99329.05249-.15265.0871-.31366.0871-.48389,0-.82715-.67285-1.5-1.5-1.5-.29291,0-.56433.08765-.79547.2334l-2.80286-2.21448c.00238-.00653.00385-.01337.00616-.0199h4.18396c.20679.58124.7569,1.00098,1.4082,1.00098.82715,0,1.5-.67285,1.5-1.5s-.67285-1.5-1.5-1.5c-.65063,0-1.20026.41876-1.40759.99902H2.95239l2.76282-2.22565c.229.14178.49622.2276.78479.2276.82715,0,1.5-.67285,1.5-1.5S7.32715.00195,6.5.00195s-1.5.67285-1.5,1.5c0,.17328.0354.3371.08966.49207l-2.78552,2.24414c-.23285-.14874-.50781-.23767-.80463-.23767C.67108,4.00049-.00049,4.67206-.00049,5.50049s.67157,1.5,1.5,1.5c.27863,0,.53632-.08105.75989-.21338l2.82672,2.23309c-.05182.15179-.08612.31165-.08612.48077,0,.82715.67285,1.5,1.5,1.5ZM6,9h1v1h-1v-1ZM8,5h1v1h-1v-1ZM6,1h1v1h-1v-1Z"/></svg>

<svg xmlns="http://www.w3.org/2000/svg" viewBox="0 0 16 16"><path fill="none" d="M0 0h16v16H0z"/><path d="M15.982 7.239a.068.068 0 0 0-.027-.023.089.089 0 0 0-.1.008L13.992 8.67a.196.196 0 0 1-.241.006l-.873-.65a.187.187 0 0 1-.04-.037.231.231 0 0 1-.025-.045l-.417-1.064a.207.207 0 0 1 .068-.238l1.862-1.445a.092.092 0 0 0 .033-.097.07.07 0 0 0-.013-.033.088.088 0 0 0-.058-.034c-.863-.125-1.851.108-2.46.58-.844.655-1.054 1.892-.56 2.915a.162.162 0 0 1-.033.189c-.72.69-5.823 4.909-5.823 4.909a1.394 1.394 0 0 0 1.97 1.97l4.73-5.483c.183-.163.405-.316.643-.26.719.166 1.46.166 2.047-.291.607-.47 1.088-1.38 1.196-2.259a.083.083 0 0 0-.017-.064zM7 15H6v-1h1v1zm-.5-3.999c.077 0 .151-.012.226-.023l1.187-.993C7.965 9.832 8 9.67 8 9.5 8 8.673 7.327 8 6.5 8a1.49 1.49 0 0 0-.795.233L2.902 6.02 2.908 6h4.184A1.498 1.498 0 0 0 8.5 7.001c.827 0 1.5-.673 1.5-1.5s-.673-1.5-1.5-1.5A1.5 1.5 0 0 0 7.092 5h-4.14l2.763-2.226c.23.142.496.228.785.228.827 0 1.5-.673 1.5-1.5s-.673-1.5-1.5-1.5S5 .675 5 1.502c0 .173.035.337.09.492L2.304 4.238A1.49 1.49 0 0 0 1.5 4a1.5 1.5 0 1 0 0 3c.278 0 .536-.08.76-.213L5.085 9.02A1.48 1.48 0 0 0 5 9.501c0 .827.673 1.5 1.5 1.5zM6 9h1v1H6V9zm2-4h1v1H8V5zM6 1h1v1H6V1z"/></svg>
